images/linkedin.svg

<svg width="16" height="16" viewBox="0 0 16 16" fill="none" xmlns="http://www.w3.org/2000/svg">
<g clip-path="url(#clip0_397217_224)">
<path d="M15.996 15.9999V15.9992H16V10.1312C16 7.26053 15.382 5.04919 12.026 5.04919C10.4126 5.04919 9.32997 5.93453 8.88797 6.77386H8.8413V5.31719H5.6593V15.9992H8.97264V10.7099C8.97264 9.31719 9.23664 7.97053 10.9613 7.97053C12.6606 7.97053 12.686 9.55986 12.686 10.7992V15.9999H15.996Z" fill="#F4F4FD"/>
<path d="M0.264038 5.31787H3.58137V15.9999H0.264038V5.31787Z" fill="#F4F4FD"/>
<path d="M1.92133 -0.00012207C0.860667 -0.00012207 0 0.860545 0 1.92121C0 2.98188 0.860667 3.86055 1.92133 3.86055C2.982 3.86055 3.84267 2.98188 3.84267 1.92121C3.842 0.860545 2.98133 -0.00012207 1.92133 -0.00012207V-0.00012207Z" fill="#F4F4FD"/>
</g>
<defs>
<clipPath id="clip0_397217_224">
<rect width="16" height="16" fill="white"/>
</clipPath>
</defs>
</svg>

<svg xmlns="http://www.w3.org/2000/svg" width="16" height="16" fill="none"><g fill="#F4F4FD" clip-path="url(#a)"><path d="M15.996 16H16V10.13c0-2.87-.618-5.082-3.974-5.082-1.613 0-2.696.886-3.138 1.725h-.047V5.317H5.66V16h3.314v-5.29c0-1.392.264-2.738 1.988-2.738 1.7 0 1.725 1.589 1.725 2.828V16h3.31ZM.264 5.318h3.317V16H.264V5.318ZM1.921 0C.861 0 .001.86.001 1.92c0 1.06.86 1.94 1.92 1.94 1.061 0 1.922-.88 1.922-1.94S2.98 0 1.92 0Z"/></g><defs><clipPath id="a"><path fill="#fff" d="M0 0h16v16H0z"/></clipPath></defs></svg>
